docs/.gitbook/assets/icon-car-16@dark.svg

<svg width="32" height="32" viewBox="0 0 16 16" fill="none" xmlns="http://www.w3.org/2000/svg">
<rect x="0" y="0" width="16" height="16" fill="#181c1f"/>
<path fill-rule="evenodd" clip-rule="evenodd" d="M5.67254 2.5C5.06749 2.5 4.54931 2.93334 4.44226 3.52885L3.98397 6.0783C4.23127 6.02697 4.48748 6 4.75 6H11.25C11.5125 6 11.7687 6.02697 12.016 6.0783L11.5577 3.52885C11.4507 2.93334 10.9325 2.5 10.3275 2.5H5.67254ZM14.0156 7.21738C14.6269 7.8846 15 8.77373 15 9.75V11.25C15 12.2165 14.2165 13 13.25 13H13V13.5C13 14.3284 12.3284 15 11.5 15C10.6716 15 10 14.3284 10 13.5V13H6V13.5C6 14.3284 5.32843 15 4.5 15C3.67157 15 3 14.3284 3 13.5V13H2.75C1.7835 13 1 12.2165 1 11.25V9.75C1 8.74196 1.39774 7.82682 2.04484 7.15295L1.81467 6.75H1.75C1.33579 6.75 1 6.41421 1 6C1 5.58579 1.33579 5.25 1.75 5.25H2.25C2.37174 5.25 2.48926 5.27951 2.59382 5.33345L2.96592 3.26346C3.20142 1.95335 4.34143 1 5.67254 1H10.3275C11.6586 1 12.7986 1.95336 13.0341 3.26346L13.4369 5.50456C13.5787 5.34338 13.7836 5.25 14 5.25H14.25C14.6642 5.25 15 5.58579 15 6C15 6.36984 14.7323 6.67715 14.3801 6.73875L14.0156 7.21738ZM5.25 11.5H3.75H2.75C2.61193 11.5 2.5 11.3881 2.5 11.25V9.75C2.5 8.50736 3.50736 7.5 4.75 7.5H11.25C12.4926 7.5 13.5 8.50736 13.5 9.75V11.25C13.5 11.3881 13.3881 11.5 13.25 11.5H12.25H10.75H5.25ZM4 9.5C4 8.94772 4.44772 8.5 5 8.5C5.55228 8.5 6 8.94772 6 9.5C6 10.0523 5.55228 10.5 5 10.5C4.44772 10.5 4 10.0523 4 9.5ZM11 8.5C10.4477 8.5 10 8.94772 10 9.5C10 10.0523 10.4477 10.5 11 10.5C11.5523 10.5 12 10.0523 12 9.5C12 8.94772 11.5523 8.5 11 8.5Z" fill="#fff"/>
</svg>

<svg xmlns="http://www.w3.org/2000/svg" width="32" height="32" fill="none" viewBox="0 0 16 16"><path fill="#181c1f" d="M0 0h16v16H0z"/><path fill="#fff" fill-rule="evenodd" d="M5.673 2.5a1.25 1.25 0 0 0-1.23 1.029l-.459 2.55Q4.355 6 4.75 6h6.5q.394 0 .766.078l-.458-2.55a1.25 1.25 0 0 0-1.23-1.028zm8.343 4.717c.61.668.984 1.557.984 2.533v1.5A1.75 1.75 0 0 1 13.25 13H13v.5a1.5 1.5 0 0 1-3 0V13H6v.5a1.5 1.5 0 0 1-3 0V13h-.25A1.75 1.75 0 0 1 1 11.25v-1.5c0-1.008.398-1.923 1.045-2.597l-.23-.403H1.75a.75.75 0 0 1 0-1.5h.5c.122 0 .24.03.344.083l.372-2.07A2.75 2.75 0 0 1 5.673 1h4.655a2.75 2.75 0 0 1 2.706 2.263l.403 2.242A.75.75 0 0 1 14 5.25h.25a.75.75 0 0 1 .13 1.489zM5.25 11.5h-2.5a.25.25 0 0 1-.25-.25v-1.5A2.25 2.25 0 0 1 4.75 7.5h6.5a2.25 2.25 0 0 1 2.25 2.25v1.5a.25.25 0 0 1-.25.25zM4 9.5a1 1 0 1 1 2 0 1 1 0 0 1-2 0m7-1a1 1 0 1 0 0 2 1 1 0 0 0 0-2" clip-rule="evenodd"/></svg>
